!!!COM: Music21
!!!OTL: barndance_NAlcordanza
!!!OMV: barndance_NAlcordanza
**kern
*clefG2
*k[f#]
*G:
*M4/4
=1
8bL
8ccJ
=||
4.dd
8ee
8ddL
8ccJ
8bL
8gJ
=
4e
2cc
12aL
12b
12ccJ
=
4dd
2g
4b
=
2.a
8bL
8ccJ
=||
4.dd
8ee
8ddL
8ccJ
8bL
8gJ
=
4e
2cc
12aL
12b
12ccJ
=
4dd
2g
4b
!!linebreak:original
=
4a
4.a
8b
8gL
8f#J
=||
4e
2cc
12aL
12b
12ccJ
=
8ddL
8eeJ
8ddL
8bJ
4g
8f#L
8gJ
=
4a
2d
4b
=
4a
4.a
8b
8gL
8f#J
=||
4e
2cc
12aL
12b
12ccJ
=
8ddL
8eeJ
8ddL
8bJ
4g
8f#L
8gJ
!!linebreak:original
=
4a
2d
4b
=
2a
8bL
8aJ
8gL
8aJ
=||
4.b
8cc
8ddL
8eeJ
8ddL
8bJ
=
8bL
8aJ
8aL
8bJ
8dL
8eJ
8gL
8aJ
=
4.b
8cc
8ddL
8eeJ
8ddL
8bJ
=
2a
8dL
8eJ
8gL
8aJ
=
4.b
8cc
8ddL
8eeJ
8ddL
8bJ
!!linebreak:original
=
8bL
8aJ
8aL
8eeJ
8eeL
8ddJ
8ddL
8bJ
=
8bL
8aJ
8aL
8bJ
8dL
8eJ
8gL
8aJ
=
2g
8dL
8eJ
8gL
8aJ
=||
4.b
8cc
8ddL
8eeJ
8ddL
8bJ
=
8bL
8aJ
8aL
8bJ
8dL
8eJ
8gL
8aJ
=
4.b
8cc
8ddL
8eeJ
8ddL
8bJ
!!linebreak:original
=
2a
8dL
8eJ
8gL
8aJ
=
4.b
8cc
8ddL
8eeJ
8ddL
8bJ
=
8bL
8aJ
8aL
8eeJ
8eeL
8ddJ
8ddL
8bJ
=
8bL
8aJ
8aL
8bJ
8dL
8eJ
8gL
8aJ
=
1g
=||
*-
